flaticon/household/pipe-1.svg

<svg xmlns="http://www.w3.org/2000/svg" width="32" height="32" viewBox="0 0 24 24">
    <path d="M 24 13.8125 L 22.640625 13.8125 L 22.640625 12.90625 C 22.640625 12.65625 22.4375 12.453125 22.1875 12.453125 L 19.472656 12.453125 C 19.222656 12.453125 19.019531 12.65625 19.019531 12.90625 L 19.019531 13.8125 L 10.628906 13.8125 C 10.011719 13.8125 9.507812 13.308594 9.507812 12.691406 L 9.507812 5.660156 L 10.414062 5.660156 C 10.664062 5.660156 10.867188 5.457031 10.867188 5.207031 L 10.867188 2.492188 C 10.867188 2.238281 10.664062 2.039062 10.414062 2.039062 L 9.507812 2.039062 L 9.507812 0.679688 L 1.359375 0.679688 L 1.359375 2.039062 L 0.453125 2.039062 C 0.203125 2.039062 0 2.238281 0 2.492188 L 0 5.207031 C 0 5.457031 0.203125 5.660156 0.453125 5.660156 L 1.359375 5.660156 L 1.359375 15.367188 C 1.359375 19.003906 4.316406 21.960938 7.957031 21.960938 L 19.019531 21.960938 L 19.019531 22.867188 C 19.019531 23.117188 19.222656 23.320312 19.472656 23.320312 L 22.1875 23.320312 C 22.4375 23.320312 22.640625 23.117188 22.640625 22.867188 L 22.640625 21.960938 L 24 21.960938 Z M 2.265625 1.585938 L 8.605469 1.585938 L 8.605469 2.039062 L 2.265625 2.039062 Z M 0.90625 4.753906 L 0.90625 2.945312 L 9.960938 2.945312 L 9.960938 4.753906 Z M 7.957031 21.054688 C 4.816406 21.054688 2.265625 18.503906 2.265625 15.367188 L 2.265625 5.660156 L 8.605469 5.660156 L 8.605469 12.691406 C 8.605469 13.808594 9.511719 14.71875 10.628906 14.71875 L 19.019531 14.71875 L 19.019531 21.054688 Z M 21.734375 22.414062 L 19.925781 22.414062 L 19.925781 13.359375 L 21.734375 13.359375 Z M 23.09375 21.054688 L 22.640625 21.054688 L 22.640625 14.71875 L 23.09375 14.71875 Z M 23.09375 21.054688"/>
</svg>

<svg xmlns="http://www.w3.org/2000/svg" width="32" height="32" viewBox="0 0 24 24">
    <path d="M24 13.813h-1.36v-.907a.453.453 0 0 0-.453-.453h-2.714a.453.453 0 0 0-.453.453v.906h-8.391a1.124 1.124 0 0 1-1.121-1.12V5.66h.906c.25 0 .453-.203.453-.453V2.492a.451.451 0 0 0-.453-.453h-.906V.68H1.359v1.36H.453c-.25 0-.453.2-.453.453v2.715c0 .25.203.453.453.453h.906v9.707a6.6 6.6 0 0 0 6.598 6.594H19.02v.906c0 .25.203.453.453.453h2.715c.25 0 .453-.203.453-.453v-.906H24zM2.266 1.585h6.34v.453h-6.34zM.906 4.754V2.945h9.055v1.809zm7.051 16.3a5.694 5.694 0 0 1-5.691-5.687V5.66h6.34v7.031c0 1.118.906 2.028 2.023 2.028h8.39v6.336zm13.777 1.36h-1.808V13.36h1.808zm1.36-1.36h-.453V14.72h.453zm0 0"/>
</svg>
